icons/line/bell.svg

<svg width="24" height="24" fill="none" xmlns="http://www.w3.org/2000/svg"><path d="M12 5c-2 0-6 1.2-6 6v4l-2 2h5m3-12c4.8 0 6 4 6 6v4l2 2h-5M12 5V3M9 17v1c0 1 .6 3 3 3s3-2 3-3v-1m-6 0h6" stroke="currentColor" stroke-width="2" stroke-linecap="round" stroke-linejoin="round"/></svg>

<svg width="24" height="24" viewBox="0 0 24 24" fill="none" xmlns="http://www.w3.org/2000/svg">
<path d="M12 5C10 5 6 6.2 6 11V15L4 17H9M12 5C16.8 5 18 9 18 11V15L20 17H15M12 5V3M9 17V18C9 19 9.6 21 12 21C14.4 21 15 19 15 18V17M9 17H15" stroke="currentColor" stroke-width="2" stroke-linecap="round" stroke-linejoin="round"/>
</svg>
